azure-patterns/svg-built-in-security.svg

<svg xmlns="http://www.w3.org/2000/svg" viewBox="0 0 31 31">
                                
                            
  <path fill-rule="evenodd" clip-rule="evenodd" d="M15.5045 1.29297C9.86246 1.29297 4.52492 4.6779 2.3069 10.2382C-0.599115 17.5243 2.9514 25.7873 10.238 28.6933C11.9637 29.3818 13.7446 29.708 15.4956 29.708C21.1381 29.708 26.4752 26.3231 28.6932 20.7628C31.5997 13.4762 28.0487 5.21365 20.7621 2.30765C19.0364 1.61877 17.2556 1.29297 15.5045 1.29297ZM15.5056 4C16.9585 4 18.3894 4.27646 19.7583 4.82305C22.6099 5.96049 24.8477 8.14054 26.0598 10.9614C27.2724 13.7829 27.3132 16.9067 26.1759 19.7587C24.4213 24.1573 20.229 27 15.4941 27C14.0413 27 12.6104 26.723 11.242 26.1769C8.39045 25.0395 6.15204 22.8595 4.94003 20.0386C3.72801 17.2177 3.68664 14.0939 4.82394 11.2413C6.57846 6.84217 10.7714 4 15.5056 4Z"></path>
  <path fill-rule="evenodd" clip-rule="evenodd" d="M3.78932 8.91738L2.47369 12.2158L0 11.229L1.31563 7.93066L3.78932 8.91738Z"></path>
  <path fill-rule="evenodd" clip-rule="evenodd" d="M31.0003 19.7713L29.6846 23.0697L27.2109 22.0826L28.5266 18.7842L31.0003 19.7713Z"></path>
  <path fill-rule="evenodd" clip-rule="evenodd" d="M19.7709 0L23.0693 1.31562L22.0826 3.78929L18.7842 2.47367L19.7709 0Z"></path>
  <path fill-rule="evenodd" clip-rule="evenodd" d="M8.91739 27.2109L12.2158 28.5266L11.2291 31.0002L7.93066 29.6846L8.91739 27.2109Z"></path>
  <path fill-rule="evenodd" clip-rule="evenodd" d="M19.1265 28.4349L22.3889 27.0332L23.4404 29.4798L20.178 30.882L19.1265 28.4349Z"></path>
  <path fill-rule="evenodd" clip-rule="evenodd" d="M7.56006 1.52034L10.8225 0.118164L11.874 2.5652L8.61159 3.96738L7.56006 1.52034Z"></path>
  <path fill-rule="evenodd" clip-rule="evenodd" d="M28.4354 11.8745L27.0332 8.61207L29.4803 7.56055L30.882 10.823L28.4354 11.8745Z"></path>
  <path fill-rule="evenodd" clip-rule="evenodd" d="M1.52035 23.4404L0.118164 20.1775L2.56522 19.126L3.96741 22.3888L1.52035 23.4404Z"></path>
  <path fill-rule="evenodd" clip-rule="evenodd" d="M10.8152 22.5004L9.5752 21.263L11.4409 19.4014L12.6809 20.6388L10.8152 22.5004Z"></path>
  <path fill-rule="evenodd" clip-rule="evenodd" d="M9.49173 22.4885L8.5 21.4989L16.4478 13.5684L17.4396 14.558L9.49173 22.4885Z"></path>
  <path fill-rule="evenodd" clip-rule="evenodd" d="M19.0153 8.5C17.0908 8.5 15.5308 10.0566 15.5308 11.9771C15.5308 13.8974 17.0908 15.454 19.0153 15.454C20.9399 15.454 22.4999 13.8974 22.4999 11.9771C22.4999 10.0566 20.9399 8.5 19.0153 8.5ZM19.0154 9.8125C20.2116 9.8125 21.1848 10.7835 21.1848 11.9771C21.1848 13.1707 20.2116 14.1417 19.0154 14.1417C17.8193 14.1417 16.8462 13.1707 16.8462 11.9771C16.8462 10.7835 17.8193 9.8125 19.0154 9.8125Z"></path>
</svg>

<svg xmlns="http://www.w3.org/2000/svg" viewBox="0 0 31 31"><path fill-rule="evenodd" clip-rule="evenodd" d="M15.505 1.293c-5.643 0-10.98 3.385-13.198 8.945-2.906 7.286.644 15.55 7.931 18.455a14.163 14.163 0 0 0 5.258 1.015c5.642 0 10.98-3.385 13.197-8.945 2.907-7.287-.644-15.55-7.93-18.455a14.155 14.155 0 0 0-5.259-1.015zm0 2.707c1.454 0 2.884.276 4.253.823a11.418 11.418 0 0 1 6.302 6.138 11.42 11.42 0 0 1 .116 8.798A11.444 11.444 0 0 1 15.494 27c-1.453 0-2.884-.277-4.252-.823a11.419 11.419 0 0 1-6.302-6.138 11.422 11.422 0 0 1-.116-8.798A11.444 11.444 0 0 1 15.506 4z"/><path fill-rule="evenodd" clip-rule="evenodd" d="M3.79 8.917l-1.316 3.299L0 11.229l1.316-3.298 2.473.986zM31 19.771l-1.315 3.299-2.474-.987 1.316-3.299 2.473.987zM19.77 0l3.3 1.316-.987 2.473-3.299-1.315L19.771 0zM8.917 27.21l3.299 1.317L11.229 31l-3.298-1.315.986-2.474zM19.127 28.435l3.262-1.402 1.051 2.447-3.262 1.402-1.052-2.447zM7.56 1.52L10.823.118l1.051 2.447-3.262 1.402L7.56 1.52zM28.435 11.874l-1.402-3.262 2.447-1.051 1.402 3.262-2.447 1.051zM1.52 23.44L.118 20.177l2.447-1.051 1.402 3.263L1.52 23.44zM10.815 22.5l-1.24-1.237 1.866-1.862 1.24 1.238-1.866 1.861z"/><path fill-rule="evenodd" clip-rule="evenodd" d="M9.492 22.488l-.992-.99 7.948-7.93.992.99-7.948 7.93z"/><path fill-rule="evenodd" clip-rule="evenodd" d="M19.015 8.5a3.48 3.48 0 0 0-3.484 3.477 3.48 3.48 0 0 0 3.484 3.477 3.48 3.48 0 0 0 3.485-3.477A3.48 3.48 0 0 0 19.015 8.5zm0 1.313a2.17 2.17 0 0 1 2.17 2.164 2.17 2.17 0 0 1-4.339 0 2.17 2.17 0 0 1 2.17-2.165z"/></svg>
